X: 8
T: The Waves of Dust
N: Derived from pawnee08.krn
O: Oklahoma, U.S.A.
N: from Pawnee Music by Frances Densmore, 1926
Z: transcribed to **kern format by David Huron, August 2000
C: Skidi and Chaui Bands, 1919
L: 1/8
M: 2/4
Q: 1/4=88
K: Eb clef=bass
%%linebreak <none>
F/ F/ [I:setbarnb 1]| 
F< E E/ E/ E/ E/ | 
E E!fermata!z2 | 
E< E (F/ E3/) | 
F E B,3/ B,/[M:3/4] | 
(B, F,/>) E,/E,2(F, E,3//) E,//[M:2/4] | 
(F, E,/>) E,/E,2 | 
G,3F | 
(3(F E) E (3(E E) E | 
(3(F E) F- (3F- F F[M:3/4] | 
(3(F E) EE2(F/ E) E/ | 
(B, F,/>) F,/ (F,< E,) (F,/ E,) F,/ | 
(F,/> E,/) E,E,2E,3/ F,/[M:2/4] | 
(F, E,/>) E,/ (F,/ E,3/) | 
F,< E, E,3/ G,/ | 
E,4 | 
E,3 :|]  



